packages/ui-solid/icons/edit_28.svg

<svg width="28" height="28" viewBox="0 0 28 28" fill="none" xmlns="http://www.w3.org/2000/svg">
<path fill-rule="evenodd" clip-rule="evenodd" d="M18.9183 3.39396C19.132 3.36996 19.3478 3.36996 19.5616 3.39396C20.1356 3.45841 20.6024 3.72415 21.0334 4.06152C21.4401 4.3798 21.8916 4.82538 22.4212 5.34808L22.494 5.41995C23.0369 5.9556 23.4989 6.41155 23.8289 6.82281C24.1783 7.25825 24.4544 7.73177 24.5212 8.31692C24.546 8.53428 24.546 8.75375 24.5212 8.97111C24.4544 9.55626 24.1783 10.0298 23.8289 10.4652C23.4989 10.8765 23.0369 11.3324 22.4941 11.868L10.4775 23.7264C10.4502 23.7533 10.4231 23.7801 10.3964 23.8066C9.97809 24.2203 9.62249 24.572 9.17045 24.7839C9.08506 24.824 8.99775 24.8598 8.90885 24.8913C8.43821 25.0579 7.93806 25.0574 7.34976 25.0567C7.3121 25.0567 7.27407 25.0566 7.23567 25.0566H7.11654C6.37871 25.0566 5.75017 25.0567 5.24179 24.999C4.70356 24.9379 4.18906 24.8026 3.73763 24.4528C3.54549 24.304 3.37295 24.1315 3.22411 23.9393C2.8744 23.4879 2.73908 22.9734 2.67799 22.4352C2.62029 21.9268 2.62031 21.2982 2.62034 20.5604L2.62034 20.5103C2.62034 20.4727 2.6203 20.4355 2.62026 20.3987C2.61962 19.8236 2.61907 19.3349 2.77806 18.8742C2.818 18.7585 2.86527 18.6454 2.91959 18.5357C3.13581 18.099 3.48402 17.7561 3.8938 17.3527C3.92006 17.3268 3.94656 17.3007 3.97331 17.2743L16.0587 5.34805C16.5883 4.82536 17.0398 4.3798 17.4464 4.06152C17.8774 3.72415 18.3443 3.45841 18.9183 3.39396ZM19.3607 5.18272C19.2804 5.17371 19.1994 5.17371 19.1191 5.18272C19.0106 5.1949 18.856 5.24404 18.5559 5.47894C18.2406 5.72572 17.8626 6.09677 17.2869 6.66491L16.5913 7.3513L20.5499 11.2577L21.193 10.6231C21.7826 10.0413 22.1684 9.65858 22.425 9.33875C22.6696 9.03385 22.7203 8.87661 22.7328 8.76686C22.7421 8.68523 22.7421 8.6028 22.7328 8.52117C22.7203 8.41142 22.6696 8.25418 22.425 7.94928C22.1684 7.62945 21.7826 7.24676 21.193 6.66491C20.6173 6.09677 20.2393 5.72572 19.924 5.47894C19.6239 5.24404 19.4692 5.1949 19.3607 5.18272ZM19.2686 12.5222L15.31 8.61574L5.23764 18.5555C4.70604 19.0801 4.5977 19.2031 4.53273 19.3344C4.51233 19.3756 4.49457 19.418 4.47957 19.4615C4.4318 19.5999 4.42034 19.7634 4.42034 20.5103C4.42034 21.312 4.4217 21.8374 4.46651 22.2322C4.50923 22.6086 4.58154 22.7524 4.64709 22.837C4.70299 22.9092 4.76779 22.974 4.83995 23.0299C4.92457 23.0954 5.0684 23.1677 5.44479 23.2104C5.83956 23.2553 6.36497 23.2566 7.16667 23.2566H7.23567C7.99966 23.2566 8.16657 23.2446 8.30803 23.1945C8.34142 23.1827 8.37421 23.1693 8.40628 23.1542C8.54215 23.0905 8.66938 22.9818 9.21317 22.4452L19.2686 12.5222Z" fill="#007AFF"/>
</svg>

<svg xmlns="http://www.w3.org/2000/svg" width="28" height="28" fill="none"><path fill="currentColor" fill-rule="evenodd" d="M18.918 3.394q.322-.036.644 0c.574.064 1.04.33 1.471.668.407.318.859.763 1.388 1.286l.073.072c.543.536 1.005.992 1.335 1.403.35.435.625.909.692 1.494q.037.327 0 .654c-.067.585-.343 1.059-.692 1.494-.33.412-.792.867-1.335 1.403L10.478 23.726l-.082.08c-.418.414-.774.766-1.226.978q-.128.06-.261.107c-.47.167-.97.166-1.56.166h-.233c-.737 0-1.366 0-1.874-.058-.538-.061-1.053-.196-1.504-.546a3 3 0 0 1-.514-.514c-.35-.451-.485-.966-.546-1.504-.058-.508-.058-1.137-.058-1.875v-.16c0-.575 0-1.064.158-1.525q.06-.173.142-.338c.216-.437.564-.78.974-1.183l.08-.079L16.058 5.348c.53-.523.98-.968 1.387-1.286.431-.338.898-.604 1.472-.668m.443 1.789a1 1 0 0 0-.242 0c-.108.012-.263.061-.563.296-.315.247-.693.618-1.27 1.186l-.695.686 3.959 3.907.643-.635c.59-.582.975-.964 1.232-1.284.245-.305.295-.462.308-.572q.015-.123 0-.246c-.013-.11-.063-.267-.308-.572-.257-.32-.642-.702-1.232-1.284-.576-.568-.954-.94-1.269-1.186-.3-.235-.455-.284-.563-.296m-.092 7.34L15.31 8.615l-10.072 9.94c-.532.524-.64.647-.705.778a1 1 0 0 0-.053.128c-.048.138-.06.301-.06 1.048 0 .802.002 1.327.047 1.722.042.377.115.52.18.605q.084.108.193.193c.085.065.228.138.605.18.395.045.92.047 1.722.047h.069c.764 0 .93-.012 1.072-.062q.05-.018.098-.04c.136-.065.263-.173.807-.71z" clip-rule="evenodd"/></svg>
